X: 1892
T: Around The World For Sport
R: reel
M: 4/4
K: Edorian
F|G2BG FGAF|EBBA BGEF|~G2BG FGAd|(3Bcd AG FDDF|
~G3B ~F3A|EBBA BGEF|GABG FGAd|(3Bcd AG FDDg||
fdec dBAF|EBBA BGEg|fdec dBAF|GAAG FDDg|
fdec dBAF|EBBA BGEg|fdec dBAF|GA (3BAG FDD||

